icons/circle/48/swatchbooker.svg

<svg xmlns="http://www.w3.org/2000/svg" viewBox="0 0 48 48">
 <defs>
  <linearGradient id="linearGradient3764" x1="1" x2="47" gradientUnits="userSpaceOnUse" gradientTransform="matrix(0,-1,1,0,-1.5e-6,47.999998)">
   <stop style="stop-color:#cacaca;stop-opacity:1"/>
   <stop offset="1" style="stop-color:#d4d4d4;stop-opacity:1"/>
  </linearGradient>
 </defs>
 <g>
  <path d="m 36.31 5 c 5.859 4.062 9.688 10.831 9.688 18.5 c 0 12.426 -10.07 22.5 -22.5 22.5 c -7.669 0 -14.438 -3.828 -18.5 -9.688 c 1.037 1.822 2.306 3.499 3.781 4.969 c 4.085 3.712 9.514 5.969 15.469 5.969 c 12.703 0 23 -10.298 23 -23 c 0 -5.954 -2.256 -11.384 -5.969 -15.469 c -1.469 -1.475 -3.147 -2.744 -4.969 -3.781 z m 4.969 3.781 c 3.854 4.113 6.219 9.637 6.219 15.719 c 0 12.703 -10.297 23 -23 23 c -6.081 0 -11.606 -2.364 -15.719 -6.219 c 4.16 4.144 9.883 6.719 16.219 6.719 c 12.703 0 23 -10.298 23 -23 c 0 -6.335 -2.575 -12.06 -6.719 -16.219 z" style="opacity:0.05"/>
  <path d="m 41.28 8.781 c 3.712 4.085 5.969 9.514 5.969 15.469 c 0 12.703 -10.297 23 -23 23 c -5.954 0 -11.384 -2.256 -15.469 -5.969 c 4.113 3.854 9.637 6.219 15.719 6.219 c 12.703 0 23 -10.298 23 -23 c 0 -6.081 -2.364 -11.606 -6.219 -15.719 z" style="opacity:0.1"/>
  <path d="m 31.25 2.375 c 8.615 3.154 14.75 11.417 14.75 21.13 c 0 12.426 -10.07 22.5 -22.5 22.5 c -9.708 0 -17.971 -6.135 -21.12 -14.75 a 23 23 0 0 0 44.875 -7 a 23 23 0 0 0 -16 -21.875 z" style="opacity:0.2"/>
 </g>
 <g>
  <path d="m 24 1 c 12.703 0 23 10.297 23 23 c 0 12.703 -10.297 23 -23 23 -12.703 0 -23 -10.297 -23 -23 0 -12.703 10.297 -23 23 -23 z" style="fill:url(#linearGradient3764);fill-opacity:1"/>
 </g>
 <g>
  <path d="m 40.03 7.531 c 3.712 4.084 5.969 9.514 5.969 15.469 0 12.703 -10.297 23 -23 23 c -5.954 0 -11.384 -2.256 -15.469 -5.969 4.178 4.291 10.01 6.969 16.469 6.969 c 12.703 0 23 -10.298 23 -23 0 -6.462 -2.677 -12.291 -6.969 -16.469 z" style="opacity:0.1"/>
 </g>
 <g>
  <g>
   <path d="m 18 12 c -2.216 0 -4 1.784 -4 4 l 0 16 c 0 2.216 1.784 4 4 4 l 16 0 c 2.216 0 4 -1.784 4 -4 0 -2.216 -1.784 -4 -4 -4 l -1.074 0 0.934 -0.539 c 1.919 -1.108 2.573 -3.546 1.465 -5.465 -0.693 -1.199 -1.904 -1.905 -3.184 -1.994 -0.768 -0.054 -1.562 0.116 -2.281 0.531 l -0.93 0.537 0.537 -0.93 c 1.108 -1.919 0.456 -4.357 -1.463 -5.465 -0.72 -0.415 -1.513 -0.583 -2.281 -0.529 -1.28 0.089 -2.491 0.795 -3.184 1.994 l -0.539 0.934 0 -1.074 c 0 -2.216 -1.784 -4 -4 -4 z m 0 19 a 1 1 0 0 1 1 1 1 1 0 0 1 -1 1 1 1 0 0 1 -1 -1 1 1 0 0 1 1 -1 z" style="fill:#000;opacity:0.1;fill-opacity:1;stroke:none"/>
   <path d="m 17 11 c -2.216 0 -4 1.784 -4 4 l 0 16 8 -4 0 -12 c 0 -2.216 -1.784 -4 -4 -4 z" style="fill:#505050;opacity:1;fill-opacity:1;stroke:none"/>
   <path d="m 24.723 13.146 c -1.28 0.089 -2.491 0.795 -3.184 1.994 l -8 13.855 l 10.391 -1.996 4.537 -7.859 c 1.108 -1.919 0.456 -4.357 -1.463 -5.465 -0.72 -0.415 -1.513 -0.583 -2.281 -0.529 z" style="fill:#8eacce;opacity:1;fill-opacity:1;stroke:none"/>
   <path d="m 31.14 19 c -0.768 -0.054 -1.562 0.116 -2.281 0.531 l -13.855 8 l 16.922 -0.533 0.934 -0.539 c 1.919 -1.108 2.573 -3.546 1.465 -5.465 -0.693 -1.199 -1.904 -1.905 -3.184 -1.994 z" style="fill:#ec6060;opacity:1;fill-opacity:1;stroke:none"/>
   <path d="m 17 27 c -2.216 0 -4 1.784 -4 4 c 0 2.216 1.784 4 4 4 l 16 0 c 2.216 0 4 -1.784 4 -4 c 0 -2.216 -1.784 -4 -4 -4 l -16 0 z m 0 2.5 a 1.5 1.5 0 0 1 1.5 1.5 a 1.5 1.5 0 0 1 -1.5 1.5 a 1.5 1.5 0 0 1 -1.5 -1.5 a 1.5 1.5 0 0 1 1.5 -1.5 z" style="fill:#edec6b;opacity:1;fill-opacity:1;stroke:none"/>
  </g>
  <path d="M 17 29 A 2 2 0 0 0 15 31 A 2 2 0 0 0 17 33 A 2 2 0 0 0 19 31 A 2 2 0 0 0 17 29 z M 17 30 A 1 1 0 0 1 18 31 A 1 1 0 0 1 17 32 A 1 1 0 0 1 16 31 A 1 1 0 0 1 17 30 z" style="fill:#6a6a6a;opacity:1;fill-opacity:1;stroke:none"/>
 </g>
</svg>

<svg xmlns="http://www.w3.org/2000/svg" viewBox="0 0 48 48">
  <defs>
    <linearGradient id="a" x1="1" x2="47" gradientUnits="userSpaceOnUse" gradientTransform="rotate(-90 24 24)">
      <stop stop-color="#cacaca"/>
      <stop offset="1" stop-color="#d4d4d4"/>
    </linearGradient>
  </defs>
  <path d="M36.31 5c5.859 4.062 9.688 10.831 9.688 18.5 0 12.426-10.07 22.5-22.5 22.5-7.669 0-14.438-3.828-18.5-9.688a23.24 23.24 0 0 0 3.781 4.969 22.923 22.923 0 0 0 15.469 5.969c12.703 0 23-10.298 23-23a22.92 22.92 0 0 0-5.969-15.469A23.216 23.216 0 0 0 36.31 5zm4.969 3.781A22.911 22.911 0 0 1 47.498 24.5c0 12.703-10.297 23-23 23a22.909 22.909 0 0 1-15.719-6.219C12.939 45.425 18.662 48 24.998 48c12.703 0 23-10.298 23-23 0-6.335-2.575-12.06-6.719-16.219z" opacity=".05"/>
  <path d="M41.28 8.781a22.923 22.923 0 0 1 5.969 15.469c0 12.703-10.297 23-23 23A22.92 22.92 0 0 1 8.78 41.281 22.911 22.911 0 0 0 24.499 47.5c12.703 0 23-10.298 23-23A22.909 22.909 0 0 0 41.28 8.781z" opacity=".1"/>
  <path d="M31.25 2.375C39.865 5.529 46 13.792 46 23.505c0 12.426-10.07 22.5-22.5 22.5-9.708 0-17.971-6.135-21.12-14.75a23 23 0 0 0 44.875-7 23 23 0 0 0-16-21.875z" opacity=".2"/>
  <path d="M24 1c12.703 0 23 10.297 23 23S36.703 47 24 47 1 36.703 1 24 11.297 1 24 1z" fill="url(#a)"/>
  <g>
    <path d="M40.03 7.531A22.922 22.922 0 0 1 45.999 23c0 12.703-10.297 23-23 23A22.92 22.92 0 0 1 7.53 40.031C11.708 44.322 17.54 47 23.999 47c12.703 0 23-10.298 23-23 0-6.462-2.677-12.291-6.969-16.469z" opacity=".1"/>
  </g>
  <g>
    <path d="M18 12c-2.216 0-4 1.784-4 4v16c0 2.216 1.784 4 4 4h16c2.216 0 4-1.784 4-4s-1.784-4-4-4h-1.074l.934-.539a3.993 3.993 0 0 0 1.465-5.465 3.99 3.99 0 0 0-5.465-1.463l-.93.537.537-.93a3.992 3.992 0 0 0-1.463-5.465 3.994 3.994 0 0 0-5.465 1.465l-.539.934V16c0-2.216-1.784-4-4-4zm0 19a1 1 0 0 1 1 1 1 1 0 0 1-1 1 1 1 0 0 1-1-1 1 1 0 0 1 1-1z" opacity=".1"/>
    <path d="M17 11c-2.216 0-4 1.784-4 4v16l8-4V15c0-2.216-1.784-4-4-4z" fill="#505050"/>
    <path d="M24.723 13.146a3.99 3.99 0 0 0-3.184 1.994l-8 13.855 10.391-1.996 4.537-7.859a3.992 3.992 0 0 0-1.463-5.465 3.994 3.994 0 0 0-2.281-.529z" fill="#8eacce"/>
    <path d="M31.14 19a3.994 3.994 0 0 0-2.281.531l-13.855 8 16.922-.533.934-.539a3.993 3.993 0 0 0 1.465-5.465A3.99 3.99 0 0 0 31.141 19z" fill="#ec6060"/>
    <path d="M17 27c-2.216 0-4 1.784-4 4s1.784 4 4 4h16c2.216 0 4-1.784 4-4s-1.784-4-4-4H17zm0 2.5a1.5 1.5 0 0 1 1.5 1.5 1.5 1.5 0 0 1-1.5 1.5 1.5 1.5 0 0 1-1.5-1.5 1.5 1.5 0 0 1 1.5-1.5z" fill="#edec6b"/>
    <path d="M17 29a2 2 0 0 0-2 2 2 2 0 0 0 2 2 2 2 0 0 0 2-2 2 2 0 0 0-2-2zm0 1a1 1 0 0 1 1 1 1 1 0 0 1-1 1 1 1 0 0 1-1-1 1 1 0 0 1 1-1z" fill="#6a6a6a"/>
  </g>
</svg>
